public/icons/tw-new.svg

<svg width="25" height="25" viewBox="0 0 25 25" fill="none" xmlns="http://www.w3.org/2000/svg">
<path d="M12.5 25C19.4036 25 25 19.4036 25 12.5C25 5.59644 19.4036 0 12.5 0C5.59644 0 0 5.59644 0 12.5C0 19.4036 5.59644 25 12.5 25Z" fill="#0087D3"/>
<path d="M19.1904 6.80298C17.8866 7.93428 16.5902 8.92578 15.5306 10.3114C12.9241 13.4545 9.73892 17.9139 5.4043 17.2492L13.1489 24.9834C19.7142 24.6478 24.9408 19.2464 24.9988 12.6115L19.1904 6.80298Z" fill="#27B0FD"/>
<path d="M19.4271 7.9332C19.1091 8.07427 18.7791 8.1855 18.4404 8.26597C18.8136 7.91143 19.0942 7.46782 19.2524 6.9728C19.2976 6.83154 19.1441 6.70923 19.0165 6.78491C18.5453 7.06445 18.0378 7.27398 17.508 7.40806C17.4773 7.41587 17.4457 7.41978 17.4138 7.41978C17.3172 7.41978 17.2236 7.38399 17.1496 7.31895C16.586 6.82217 15.861 6.54858 15.1083 6.54858C14.7825 6.54858 14.4538 6.59937 14.131 6.69951C13.1306 7.00972 12.3588 7.83496 12.1165 8.85298C12.0257 9.23472 12.0011 9.61704 12.0434 9.98892C12.0482 10.0317 12.0281 10.0615 12.0156 10.0754C11.9937 10.1 11.9627 10.1141 11.9304 10.1141C11.9269 10.1141 11.9231 10.1139 11.9195 10.1136C9.72976 9.91006 7.7551 8.85518 6.35949 7.14302C6.28845 7.05566 6.15183 7.06641 6.09509 7.16362C5.82185 7.63267 5.67741 8.16895 5.67741 8.7147C5.67741 9.55098 6.01355 10.3392 6.59719 10.9139C6.35173 10.8556 6.11413 10.764 5.89338 10.6413C5.78655 10.582 5.65525 10.6584 5.65373 10.7805C5.6386 12.023 6.36604 13.1285 7.45574 13.6263C7.43376 13.6268 7.41179 13.627 7.38982 13.627C7.21711 13.627 7.04211 13.6105 6.87004 13.5774C6.74978 13.5546 6.64875 13.6686 6.68606 13.7851C7.03987 14.8895 7.9906 15.7035 9.12849 15.8881C8.1842 16.5221 7.0844 16.8564 5.93991 16.8564L5.58318 16.8563C5.47307 16.8563 5.38005 16.928 5.35222 17.0345C5.32463 17.1392 5.37536 17.25 5.46921 17.3045C6.75886 18.0551 8.23 18.4517 9.724 18.4517C11.0318 18.4517 12.2551 18.1923 13.36 17.6803C14.373 17.2111 15.268 16.5404 16.0205 15.6868C16.7215 14.8916 17.2696 13.9737 17.6496 12.9584C18.0118 11.9908 18.2033 10.958 18.2033 9.97232V9.92525C18.2033 9.76699 18.2749 9.61807 18.3998 9.51655C18.8738 9.13169 19.2865 8.67876 19.6265 8.17026C19.7163 8.03609 19.5747 7.86773 19.4271 7.9332Z" fill="white"/>
<path d="M19.4272 7.9332C19.109 8.07427 18.7792 8.1855 18.4404 8.26597C18.8137 7.91142 19.0942 7.46782 19.2525 6.9728C19.2978 6.83154 19.1442 6.70923 19.0166 6.78491C18.5454 7.06445 18.0379 7.27397 17.5081 7.40806C17.4774 7.41587 17.4458 7.41977 17.4139 7.41977C17.3173 7.41977 17.2237 7.38398 17.1497 7.31895C16.5861 6.82217 15.8611 6.54858 15.1084 6.54858C14.7827 6.54858 14.4539 6.59937 14.1311 6.69951C13.4318 6.91636 12.8448 7.38545 12.4717 7.9957V18.0288C12.7755 17.9297 13.0719 17.8138 13.3603 17.6802C14.3732 17.211 15.2683 16.5403 16.0207 15.6867C16.7217 14.8914 17.2698 13.9735 17.6499 12.9582C18.0121 11.9906 18.2036 10.9579 18.2036 9.97217V9.9251C18.2036 9.76684 18.2751 9.61792 18.4001 9.5164C18.874 9.13154 19.2868 8.67861 19.6267 8.17012C19.7164 8.03608 19.5748 7.86772 19.4272 7.9332Z" fill="#DCE1EB"/>
</svg>

<svg viewBox="0 0 25 25" fill="none" xmlns="http://www.w3.org/2000/svg"><path d="M12.5 25C19.404 25 25 19.404 25 12.5S19.404 0 12.5 0 0 5.596 0 12.5 5.596 25 12.5 25z" fill="#0087D3"/><path d="M19.19 6.803c-1.303 1.131-2.6 2.123-3.66 3.508-2.606 3.143-5.791 7.603-10.126 6.938l7.745 7.734c6.565-.335 11.792-5.737 11.85-12.372L19.19 6.803z" fill="#27B0FD"/><path d="M19.427 7.933a5.656 5.656 0 01-.987.333c.374-.355.654-.798.812-1.293a.161.161 0 00-.235-.188c-.472.28-.98.489-1.509.623a.4.4 0 01-.358-.09 3.085 3.085 0 00-2.042-.77c-.325 0-.654.051-.977.152a2.99 2.99 0 00-2.014 2.153 3.295 3.295 0 00-.074 1.136.114.114 0 01-.124.125 8.09 8.09 0 01-5.56-2.971.161.161 0 00-.264.02 3.084 3.084 0 00.502 3.75 2.766 2.766 0 01-.704-.272.161.161 0 00-.24.14 3.09 3.09 0 001.803 2.845 2.898 2.898 0 01-.586-.049.161.161 0 00-.184.208 3.092 3.092 0 002.442 2.103 5.692 5.692 0 01-3.188.968h-.357a.236.236 0 00-.23.178.244.244 0 00.116.27 8.467 8.467 0 004.255 1.148c1.308 0 2.531-.26 3.636-.772a8.03 8.03 0 002.66-1.993 8.738 8.738 0 001.63-2.729c.362-.967.553-2 .553-2.986v-.047c0-.158.072-.307.197-.408a6.1 6.1 0 001.227-1.347c.09-.134-.052-.302-.2-.237z" fill="#fff"/><path d="M19.427 7.933a5.66 5.66 0 01-.987.333 3.08 3.08 0 00.813-1.293.161.161 0 00-.236-.188c-.472.28-.98.489-1.509.623a.4.4 0 01-.358-.09 3.085 3.085 0 00-2.042-.77c-.325 0-.654.051-.977.152-.7.216-1.286.685-1.66 1.296v10.033a8.03 8.03 0 003.549-2.342 8.742 8.742 0 001.63-2.729c.362-.967.554-2 .554-2.986v-.047c0-.158.071-.307.196-.409a6.099 6.099 0 001.227-1.346c.09-.134-.052-.302-.2-.237z" fill="#DCE1EB"/></svg>
